X: 619
T: The Fire in the Hearth
S: as played by John Skelton on the Woodenflute Obsession CD
L: 1/8
M: 5/4
R: air
C:Freeland Barbour
Z:James T. Peeples
N:Posted to the woodenflute mailing list January 2003
K: Edor
||: E2 ~E2 B6 | E2~ E2 A6 | {c/}A3 G/A/ B (E E4) | {F/}E3 D/F/ {D/}E6 |
E2 ~E2 B6 | E2 ~E2 A6 | {c/}A3 G/A/ B e3 {g/}ed | {A/}B6  {c/}B3 A/B/ |
e3 f/e/ B4 AB | d6  (3F2G2A2 | D6 E{A/}B AF |  {F//}G4 F2 D2  {G/}E{G/}
D | {G/}(E6 E4) :|| AB e4 e2{a/}ed/e/ | f4 d2 f2 {g/}ed | {g/}e6 e=f e=f/e/ |
(B2B)c/B/ A2 {A/}B{A/}B3 | {e/}d2 {A/}BA3 F{G/}A (D2 |
D6) E{A}B AF | {F/}G4 F2 D2 {G/}E{G/}D | {G/}(E3 E2) :||

